public/library/solscan-icon-light.svg.svg

<svg width="316" height="315" viewBox="0 0 316 315" fill="none" xmlns="http://www.w3.org/2000/svg">
<g clip-path="url(#clip0_15320_6385)">
<path d="M157.501 -0.375009C158.243 -0.3738 158.986 -0.372592 159.751 -0.371347C200.901 -0.19058 238.327 15.5969 268.001 44C268.795 44.7309 269.589 45.4618 270.407 46.2148C299.639 74.0132 314.085 114.372 316.001 154C316.043 154.866 316.086 155.732 316.129 156.625C317.036 195.299 303.157 231.777 277.001 260C272.034 255.884 267.588 251.579 263.251 246.812C258.943 242.131 254.59 237.533 250.063 233.062C245.827 228.877 241.829 224.56 238.001 220C239.494 215.902 241.505 212.358 243.751 208.625C258.049 184.089 261.052 157.294 253.876 130C247.036 105.774 231.076 84.526 209.251 71.875C185.025 58.3674 158.112 53.5756 131.001 61C105.763 68.7927 83.7433 84.5134 70.9019 108.01C58.1815 132.403 54.1314 159.243 62.1256 185.875C70.2872 211.566 87.1832 233.11 111.001 246C136.273 258.52 161.194 259.401 188.125 252.452C190.247 251.941 192.193 251.796 194.376 251.75C195.47 251.711 195.47 251.711 196.587 251.672C203.77 252.648 208.21 257.811 213.024 262.73C213.77 263.481 214.516 264.231 215.285 265.004C217.656 267.392 220.016 269.789 222.376 272.188C223.986 273.813 225.596 275.437 227.208 277.061C231.147 281.033 235.077 285.013 239.001 289C237.172 293.096 234.662 294.969 230.938 297.312C230.016 297.897 230.016 297.897 229.075 298.493C208.561 311.04 185.304 315.442 161.563 315.375C160.771 315.374 159.978 315.373 159.162 315.371C119.658 315.208 81.7949 301.088 52.0006 275C51.1511 274.283 50.3016 273.567 49.4264 272.828C43.1832 267.436 38.0125 261.54 33.0006 255C32.3212 254.125 31.6419 253.249 30.942 252.348C14.9048 231.058 4.95175 206.294 1.00058 180C0.816245 178.802 0.631909 177.605 0.441987 176.371C-4.60214 134.33 7.93634 92.1714 33.7896 58.9648C59.598 26.653 96.2021 6.05584 137.122 0.414542C143.913 -0.311258 150.679 -0.395715 157.501 -0.375009Z" fill="#00E8B5"/>
<path d="M197.996 108.172C209.455 118.008 217.931 131.94 220 147C221.423 167.213 218.076 184.808 204.625 200.5C192.888 212.619 177.288 219.847 160.402 220.354C142.737 220.513 127.002 215.572 114.062 203.26C101.611 190.821 95.117 175.085 94.625 157.5C95.1486 140.845 100.967 125.086 112.727 113.105C137.096 90.5362 171.111 88.6825 197.996 108.172Z" fill="#C74AE3"/>
</g>
<defs>
<clipPath id="clip0_15320_6385">
<rect width="316" height="315" fill="white"/>
</clipPath>
</defs>
</svg>

<svg xmlns="http://www.w3.org/2000/svg" width="316" height="315" fill="none" viewBox="0 0 316 315"><g clip-path="url(#a)"><path fill="#00e8b5" d="m157.501-.375 2.25.004c41.15.18 78.576 15.968 108.25 44.371l2.406 2.215c29.232 27.798 43.678 68.157 45.594 107.785l.128 2.625c.907 38.674-12.972 75.152-39.128 103.375-4.967-4.116-9.413-8.421-13.75-13.188-4.308-4.681-8.661-9.279-13.188-13.75A190 190 0 0 1 238.001 220c1.493-4.098 3.504-7.642 5.75-11.375 14.298-24.536 17.301-51.331 10.125-78.625-6.84-24.226-22.8-45.474-44.625-58.125-24.226-13.508-51.139-18.3-78.25-10.875-25.238 7.793-47.258 23.513-60.1 47.01-12.72 24.393-16.77 51.233-8.775 77.865C70.287 211.566 87.183 233.11 111 246c25.272 12.52 50.193 13.401 77.124 6.452 2.122-.511 4.068-.656 6.251-.702l2.211-.078c7.183.976 11.623 6.139 16.437 11.058l2.261 2.274a2183 2183 0 0 1 7.091 7.184q2.415 2.437 4.832 4.873 5.908 5.958 11.793 11.939c-1.829 4.096-4.339 5.969-8.063 8.312l-1.863 1.181c-20.514 12.547-43.771 16.949-67.512 16.882l-2.401-.004c-39.504-.163-77.367-14.283-107.161-40.371l-2.575-2.172C43.183 267.436 38.013 261.54 33.001 255l-2.059-2.652C14.905 231.058 4.952 206.294 1.001 180c-.185-1.198-.37-2.395-.559-3.629-5.044-42.041 7.494-84.2 33.348-117.406C59.598 26.653 96.202 6.055 137.122.415c6.791-.726 13.557-.81 20.379-.79"/><path fill="#c74ae3" d="M197.996 108.172C209.455 118.008 217.931 131.94 220 147c1.423 20.213-1.924 37.808-15.375 53.5-11.737 12.119-27.337 19.347-44.223 19.854-17.665.159-33.4-4.782-46.34-17.094-12.451-12.439-18.945-28.175-19.437-45.76.524-16.655 6.342-32.414 18.102-44.395 24.369-22.569 58.384-24.422 85.269-4.933"/></g><defs><clipPath id="a"><path fill="#fff" d="M0 0h316v315H0z"/></clipPath></defs></svg>
